X: 75
T:Top of Maol
R:Polka
S:Matt Cranitch Book
Z:Added by alf.warnock@rogers.com
M:2/4
L:1/8
K:G
A2 AB/d/|ed Bd|G2 G>A|Bd BG|
A2 AB/d/|ed Bd|e/f/g/e/ dB|A2 A2:|
|:ea ag/a/|ba g2|ef g>a|ge ed|
ea ag/a/|bag>f|e/f/g/e/ dB|A2A2:|

